packages/core/src/svgs/tokens/mono/ADCO.svg

<svg width="24" height="24" viewBox="0 0 24 24" fill="none" xmlns="http://www.w3.org/2000/svg">
<path fill-rule="evenodd" clip-rule="evenodd" d="M19.0588 20.9647V19.1352C18.3529 19.5117 15.8647 20.2353 12.5588 20.2353C8.41764 20.2353 4.05882 18.1824 4.05882 12.2471C4.05882 6.30588 7.94117 3.7647 12.0765 3.7647C16.2117 3.7647 19.9412 6.24117 19.9412 11.1765C19.9412 13.8705 18.7177 15.5294 17.4353 15.5294C16.7058 15.5294 16.7058 15.1941 16.7058 14.5059V9.99995C16.6646 8.82351 15.6647 6.70588 12.2118 6.70588C10.7706 6.70588 9.13529 6.9294 8.47058 7.16469V9.18822C9.02939 8.94117 10.4235 8.47058 11.7294 8.47058C13.3705 8.47058 14.0411 9.35293 14.0411 10.1765V10.8647C13.6647 10.7236 12.9 10.5293 11.8294 10.5293C10.2176 10.5293 7.88234 11.0882 7.88234 14.0823C7.88234 15.9412 8.89999 17.2941 11.1412 17.2941C12.3821 17.2725 13.5693 16.7829 14.4647 15.9235C14.6792 16.3511 15.0125 16.7079 15.4245 16.9509C15.8367 17.1942 16.3101 17.3132 16.7882 17.2941C19.4882 17.2941 22 15.5 22 10.8C22 6.10587 18.1235 2 12.2118 2C6.29999 2 2 6.00588 2 12.0412C2 18.0764 5.99999 22 12.5588 22C14.763 21.958 16.9507 21.6096 19.0588 20.9647ZM14.0411 14.3412V12.8236C13.4519 12.6675 12.8448 12.5883 12.2353 12.5882C10.5293 12.5882 10.2411 13.2824 10.2411 13.9294C10.2411 14.5764 10.694 15.5294 11.8294 15.5294C12.6352 15.5294 13.5529 14.7941 14.047 14.3412H14.0411Z" fill="white"/>
</svg>

<svg xmlns="http://www.w3.org/2000/svg" width="24" height="24" fill="none" viewBox="0 0 24 24">
    <path fill="#fff" fill-rule="evenodd" d="M19.059 20.965v-1.83c-.706.377-3.194 1.1-6.5 1.1-4.141 0-8.5-2.053-8.5-7.988 0-5.941 3.882-8.482 8.017-8.482 4.136 0 7.865 2.476 7.865 7.412 0 2.694-1.223 4.352-2.506 4.352-.73 0-.73-.335-.73-1.023V10c-.04-1.176-1.04-3.294-4.493-3.294-1.441 0-3.077.223-3.741.459v2.023c.558-.247 1.953-.717 3.258-.717 1.642 0 2.312.882 2.312 1.706v.688c-.376-.141-1.141-.336-2.212-.336-1.611 0-3.947.56-3.947 3.553 0 1.86 1.018 3.212 3.26 3.212a4.92 4.92 0 0 0 3.323-1.37 2.49 2.49 0 0 0 2.323 1.37c2.7 0 5.212-1.794 5.212-6.494C22 6.106 18.124 2 12.212 2S2 6.006 2 12.041 6 22 12.559 22a23.8 23.8 0 0 0 6.5-1.035M14.04 14.34v-1.517a7 7 0 0 0-1.806-.236c-1.706 0-1.994.694-1.994 1.341s.453 1.6 1.588 1.6c.806 0 1.724-.735 2.218-1.188z" clip-rule="evenodd"/>
</svg>
